X: 2
T: The Dashing White Sergeant
R: polka
M: 2/4
L: 1/8
K: Fmaj
A/G/|:FF/G/ F/G/A/B/|c/B/c/d/ ca/g/|~fdcA|dG G/B/A/G/|FF/G/ F/G/A/B/|c/B/c/d/ ca|gfed|1 cc/d/ c/B/A/G/:|2 c2z||C|cc/d/ c/d/e/f/|g/a/g/e/ c>e|dd/e/ d/e/f/g/|a/b/a/f/ dd/d/|ec/c/ fc/c/|gc/c/ ag/a/|bagf|ed c/B/A/G/|F>f f/e/f/g/|fcc>f|dg g/f/g/a/|gdd>~f|c>f f/e/f/g/|az c’>e|fe/d/ c/B/A/G/||


Tune 6319	Setting 6319

